**kern	**kern
*staff1	*staff1
*head[head1]	*head[head1]
*solo[solo1]	*solo[solo1]
*solo[solo2]	*solo[solo2]
=1-	=1-
*clefG2	*clefG2
*k[]	*k[]
*C:	*C:
*M4/4	*M4/4
1r	.
=2	=2
1r	.
=3	=3
1r	.
=4	=4
2r	.
4r	.
8r	.
*>head1	*>head1
{8c/	.
=5	=5
4.g/	1C:dom
16f/LL	.
16e/JJ	.
8f/L	.
8g/J	.
8r	.
8c/	.
=6||	=6||
8g/L	1C:dom
[8g/	.
8g/]	.
16f/L	.
16e/JJ	.
8f/L	.
8g/J	.
8r	.
8c/	.
=7	=7
4.g/	1C:dom
16f/LL	.
16e/JJ	.
8f/L	.
8d/	.
8c/	.
[8B-/J	.
=8	=8
4B-/]}	1C:dom
4r	.
8r	.
{8c/L	.
8g/	.
[8g/J	.
=9	=9
4.g/]	1F:dom
16f/LL	.
16e-/JJ	.
8f/L	.
8g/J	.
8.r	.
[16b\	.
=10	=10
4.b\]	1F:dom
16b-/LL	.
16g/JJ	.
12f/L	.
12e-/	.
12c/J	.
12g-/L	.
12f/	.
24e-/L	.
24c/JJ	.
=11	=11
8e/L	1C:dom
8c/J	.
12G/L	.
12F/	.
12G/J	.
12E/L	.
12G/	.
[12c/J	.
4c/_	.
=12	=12
4c/]}	1C:dom
8r	.
{[8b\	.
4b\]	.
12a/L	.
12e-/	.
12en/J	.
=13	=13
8g/L	1D:min
8f/J}	.
4r	.
4r	.
8r	.
{24cc\LL	.
24cc\	.
24cc\JJ	.
=14	=14
6gg-\	1G:dom
6ff\	.
12ee-\L	.
12cc\J	.
8.een\L	.
16cc\Jk	.
12g/L	.
12f/	.
12g/J	.
=15	=15
8e/L	1C:dom
8c/J	.
24B-/LL	.
24c/	.
24B-/JJ	.
8G/	.
8F/L	.
8G/J	.
12E/L	.
12G/	.
[12c/J	.
=16	=16
4c/]	1G:dom
8r	.
[8e/	.
4e/_	.
8e/L]	.
16c/L	.
16f/JJ	.
=17	=17
4g/}	1C:dom
4r	.
8r	.
>*solo1	*>solo1
{8c/	.
12e/L	.
12g/	.
12a/J	.
=18||	=18||
8cc/L	1F:dom
8a/J	.
4r	.
8g-/L	.
8f/J	.
12e-/L	.
12c/	.
[12en/J	.
=19	=19
12e/L]	1C:dom
12c/	.
[12G/J	.
4G/]}	.
2r	.
=20	=20
8r	2G:min
{16g/LL	.
16a/JJ	.
16b-\LL	.
16cc\	.
16dd-\	.
16b-\JJ	.
16cc/LL	2C:dom
16a/JJ	.
24b-\LL	.
24cc\	.
24b-\JJ	.
16a/LL	.
16f/	.
16d-/	.
16B/JJ	.
=21	=21
16c/LL	1F:dom
16A/JJ	.
24B-/LL	.
24e/	.
24f/JJ	.
16f/LL	.
16c/	.
16d/	.
16c/JJ	.
4e-/}	.
4r	.
=22	=22
2r	1F:dom
{8.ee-\L	.
16b\Jk	.
16cc/LL	.
16g#/	.
16a/	.
16f/JJ	.
=23	=23
4g-/	1C:dom
8r	.
16e-/LL	.
16en/JJ	.
16g-/LL	.
16a/	.
16b/	.
16cc/JJ	.
16dd\LL	.
16cc\	.
16b\	.
16a\JJ	.
=24	=24
16g#/LL	1C:dom
16a/	.
16cc/	.
16a/JJ	.
4r	.
8r	.
48b\LLL	.
48cc\	.
48b\JJJ	.
16a/	.
16g#/LL	.
16f/	.
16e/	.
16d/JJ	.
=25	=25
16c#/LL	1D:min
16d/	.
16e/	.
16c#/JJ	.
16d/LL	.
16e/	.
16f/	.
16g/JJ	.
16a/LL	.
16f/	.
16d/	.
16A/JJ	.
16d-/LL	.
16a/JJ	.
24f/LL	.
24d-/	.
24A/JJ	.
=26	=26
16c/LL	1G:dom
16A/	.
16B/	.
16a/JJ	.
8r	.
[8e/	.
8e/L]	.
16g/L	.
16g-/JJ	.
16f/LL	.
16e/	.
16d/	.
16B/JJ	.
=27	=27
16c/LL	1C:dom
16a-/	.
16f/	.
16f#/J	.
8g/	.
[8e/J	.
4e/]}	.
4r	.
=28	=28
4r	1G:dom
*>solo2	*>solo2
{[2cc\	.
8cc\]	.
24dd\LL	.
24cc\	.
24b\JJ	.
=29	=29
8cc/L	1C:dom
[8g/J	.
4g/]	.
4r	.
8cc\L	.
16cc\L	.
16b\JJ	.
=30||	=30||
6cc\	1F:dom
6g/	.
12gg-\L	.
12ff\J	.
16ee-\LL	.
16cc\J	.
[8een\	.
8ee\]	.
8cc\J	.
=31	=31
12g/L	1C:dom
12f/	.
12g/J	.
8e/L	.
[8c/J	.
4c/]}	.
4r	.
=32	=32
8r	1C:dom
{[8dd\	.
2dd\_	.
8dd\L]	.
16cc\L	.
16b-\JJ	.
=33	=33
16a/LL	1F:dom
16f/	.
16d/	.
16c/JJ	.
16g/LL	.
16f/	.
16c/	.
16A/JJ	.
8e-/L	.
[8F/J	.
4F/]}	.
=34	=34
8r	1F:dom
{4.cc\	.
8a/L	.
8g/	.
8e/	.
8B/J	.
=35	=35
8d/L	1C:dom
8B/	.
8c/	.
[8g/J	.
4g/]	.
8r	.
16b/LL	.
16a/JJ	.
=36	=36
8g/L	2E:min
8e/	.
8B/	.
8G/J	.
8B-/L	2A:dom
8g-/J	.
12e-/L	.
12en/	.
[12f/J	.
=37	=37
4f/]	1D:min
8r	.
16ee\LL	.
16cc\JJ	.
8a/L	.
8f/	.
8d/	.
8A/J	.
=38	=38
8c/L	1G:dom
8A/	.
8B/	.
[8a#/J	.
4.a#/]	.
16g/LL	.
16f/JJ	.
=39	=39
6e/	1C:dom
6c/	.
6c/	.
4c/}	.
4r	.
=40	=40
8r	2D:min
{[8c/L	.
8c/J]	.
24d/LL	.
24c/	.
24B/JJ	.
8d/L	2G:dom
8c/J	.
16B/LL	.
16c/	.
16d/	.
16B/JJ	.
=41	=41
8c/L	1C:dom
[8G/J	.
4G/]}	.
2r	.
==	==
*-	*-
